icons/general-hash-2-filled.svg

<svg viewBox="0 0 24 24"><path fill="currentColor" d="m9.7 14 .6-4h4l-.6 4z"/><path fill="currentColor" fill-rule="evenodd" d="M18 2.4a3.6 3.6 0 0 1 3.6 3.6v12a3.6 3.6 0 0 1-3.6 3.6h-12a3.6 3.6 0 0 1-3.6-3.6v-12a3.6 3.6 0 0 1 3.6-3.6zm-7 3.8a1 1 0 1 0-2-.4l-.3 2.2h-2.7a1 1 0 0 0 0 2h2.3l-.6 4h-1.7a1 1 0 1 0 0 2h1.3l-.3 1.8a1 1 0 1 0 2 .4l.3-2.2h4l-.3 1.8a1 1 0 1 0 2 .4l.3-2.2h2.7a1 1 0 1 0 0-2h-2.3l.6-4h1.7a1 1 0 1 0 0-2h-1.3l.3-1.8a1 1 0 1 0-2-.4l-.3 2.2h-4z" clip-rule="evenodd"/></svg>

<svg viewBox="0 0 24 24"><path fill="currentColor" d="m9.7 14 .6-4h4l-.6 4z"/><path fill="currentColor" fill-rule="evenodd" d="M18 2.4A3.6 3.6 0 0 1 21.6 6v12a3.6 3.6 0 0 1-3.6 3.6H6A3.6 3.6 0 0 1 2.4 18V6A3.6 3.6 0 0 1 6 2.4zm-7 3.8a1 1 0 1 0-2-.4L8.7 8H6a1 1 0 0 0 0 2h2.3l-.6 4H6a1 1 0 1 0 0 2h1.3L7 17.8a1 1 0 1 0 2 .4l.3-2.2h4l-.3 1.8a1 1 0 1 0 2 .4l.3-2.2H18a1 1 0 1 0 0-2h-2.3l.6-4H18a1 1 0 1 0 0-2h-1.3l.3-1.8a1 1 0 1 0-2-.4L14.7 8h-4z" clip-rule="evenodd"/></svg>
